symbols/web/add_comment/materialsymbolsoutlined/add_comment_wght300fill1_40px.svg

<svg xmlns="http://www.w3.org/2000/svg" height="40" width="40"><path d="M18.958 22.917h2.084v-5.209h5.208v-2.083h-5.208v-5.208h-2.084v5.208H13.75v2.083h5.208ZM4.167 35.083V6.792q0-1.084.771-1.854.77-.771 1.854-.771h26.416q1.084 0 1.854.771.771.77.771 1.854v19.75q0 1.083-.771 1.854-.77.771-1.854.771H10.083Z"/></svg>

<svg xmlns="http://www.w3.org/2000/svg" height="40" width="40"><path d="M18.958 22.917H21.042V17.708H26.25V15.625H21.042V10.417H18.958V15.625H13.75V17.708H18.958ZM4.167 35.083V6.792Q4.167 5.708 4.938 4.938Q5.708 4.167 6.792 4.167H33.208Q34.292 4.167 35.062 4.938Q35.833 5.708 35.833 6.792V26.542Q35.833 27.625 35.062 28.396Q34.292 29.167 33.208 29.167H10.083Z"/></svg>
